static/img/kroki/bb47a57c40aaa5e746322b2911e31243.svg

<?xml version="1.0" encoding="us-ascii" standalone="no"?><svg xmlns="http://www.w3.org/2000/svg" xmlns:xlink="http://www.w3.org/1999/xlink" contentStyleType="text/css" height="374px" preserveAspectRatio="none" style="width:250px;height:374px;" version="1.1" viewBox="0 0 250 374" width="250px" zoomAndPan="magnify"><defs/><g><!--class azure_compute_gallery--><g id="elem_azure_compute_gallery"><rect codeLine="23" fill="#3D176E" height="39.7891" id="azure_compute_gallery" rx="2.5" ry="2.5" style="stroke:#000D19;stroke-width:0.5;" width="236" x="7" y="328.58"/><ellipse cx="22" cy="348.4745" fill="#ADD1B2" rx="11" ry="11" style="stroke:#181818;stroke-width:1.0;"/><path d="M24.9688,354.1152 Q24.3906,354.412 23.75,354.5527 Q23.1094,354.7089 22.4063,354.7089 Q19.9063,354.7089 18.5781,353.0683 Q17.2656,351.412 17.2656,348.287 Q17.2656,345.162 18.5781,343.5058 Q19.9063,341.8495 22.4063,341.8495 Q23.1094,341.8495 23.75,342.0058 Q24.4063,342.162 24.9688,342.4589 L24.9688,345.1777 Q24.3438,344.5995 23.75,344.3339 Q23.1563,344.0527 22.5313,344.0527 Q21.1875,344.0527 20.5,345.1308 Q19.8125,346.1933 19.8125,348.287 Q19.8125,350.3808 20.5,351.4589 Q21.1875,352.5214 22.5313,352.5214 Q23.1563,352.5214 23.75,352.2558 Q24.3438,351.9745 24.9688,351.3964 L24.9688,354.1152 Z " fill="#000000"/><text fill="#D9B8FF" font-family="Helvetica" font-size="17" lengthAdjust="spacing" textLength="194" x="41" y="354.3598">azure_compute_gallery</text></g><!--class microsoft_resource--><g id="elem_microsoft_resource"><rect codeLine="26" fill="#3D176E" height="39.7891" id="microsoft_resource" rx="2.5" ry="2.5" style="stroke:#000D19;stroke-width:0.5;" width="200" x="25" y="167.79"/><ellipse cx="40" cy="187.6845" fill="#ADD1B2" rx="11" ry="11" style="stroke:#181818;stroke-width:1.0;"/><path d="M42.9688,193.3252 Q42.3906,193.622 41.75,193.7627 Q41.1094,193.9189 40.4063,193.9189 Q37.9063,193.9189 36.5781,192.2783 Q35.2656,190.622 35.2656,187.497 Q35.2656,184.372 36.5781,182.7158 Q37.9063,181.0595 40.4063,181.0595 Q41.1094,181.0595 41.75,181.2158 Q42.4063,181.372 42.9688,181.6689 L42.9688,184.3877 Q42.3438,183.8095 41.75,183.5439 Q41.1563,183.2627 40.5313,183.2627 Q39.1875,183.2627 38.5,184.3408 Q37.8125,185.4033 37.8125,187.497 Q37.8125,189.5908 38.5,190.6689 Q39.1875,191.7314 40.5313,191.7314 Q41.1563,191.7314 41.75,191.4658 Q42.3438,191.1845 42.9688,190.6064 L42.9688,193.3252 Z " fill="#000000"/><text fill="#D9B8FF" font-family="Helvetica" font-size="17" lengthAdjust="spacing" textLength="158" x="59" y="193.5698">microsoft_resource</text></g><!--class resource--><g id="elem_resource"><rect codeLine="29" fill="#3D176E" height="39.7891" id="resource" rx="2.5" ry="2.5" style="stroke:#000D19;stroke-width:0.5;" width="113" x="68.5" y="7"/><ellipse cx="83.5" cy="26.8945" fill="#ADD1B2" rx="11" ry="11" style="stroke:#181818;stroke-width:1.0;"/><path d="M86.4688,32.5352 Q85.8906,32.832 85.25,32.9727 Q84.6094,33.1289 83.9063,33.1289 Q81.4063,33.1289 80.0781,31.4883 Q78.7656,29.832 78.7656,26.707 Q78.7656,23.582 80.0781,21.9258 Q81.4063,20.2695 83.9063,20.2695 Q84.6094,20.2695 85.25,20.4258 Q85.9063,20.582 86.4688,20.8789 L86.4688,23.5977 Q85.8438,23.0195 85.25,22.7539 Q84.6563,22.4727 84.0313,22.4727 Q82.6875,22.4727 82,23.5508 Q81.3125,24.6133 81.3125,26.707 Q81.3125,28.8008 82,29.8789 Q82.6875,30.9414 84.0313,30.9414 Q84.6563,30.9414 85.25,30.6758 Q85.8438,30.3945 86.4688,29.8164 L86.4688,32.5352 Z " fill="#000000"/><text fill="#D9B8FF" font-family="Helvetica" font-size="17" lengthAdjust="spacing" textLength="71" x="102.5" y="32.7798">resource</text></g><!--reverse link microsoft_resource to azure_compute_gallery--><g id="link_microsoft_resource_azure_compute_gallery"><path codeLine="32" d="M125,225.84 C125,256.36 125,297.69 125,328.25 " fill="none" id="microsoft_resource-backto-azure_compute_gallery" style="stroke:#FFAF37;stroke-width:2.0;"/><polygon fill="none" points="125,207.84,119,225.84,131,225.84,125,207.84" style="stroke:#FFAF37;stroke-width:2.0;"/></g><!--reverse link resource to microsoft_resource--><g id="link_resource_microsoft_resource"><path codeLine="33" d="M125,65.05 C125,95.57 125,136.9 125,167.46 " fill="none" id="resource-backto-microsoft_resource" style="stroke:#FFAF37;stroke-width:2.0;"/><polygon fill="none" points="125,47.05,119,65.05,131,65.05,125,47.05" style="stroke:#FFAF37;stroke-width:2.0;"/></g><!--SRC=[XP71Ri8m44Jl-GfBd952KGj8lK2aghsWglGUBVOQB69lj7QAGjj_BnHQcIJ0TUTvPsQzDWe5sZBKmg9T8ll4RumhWS6AAJDjCog8HKzhqCDHKtmY5su2Sx0edh7um60aD8dtjP4RXzwBkqYQWToic2gdZki3W_Dx2Ls8gAm0xwSXi5bM0QCmQh8SQzqacqjxGpKOFM0B8rR89oHDKpMOD96RLbTx_nCBiqCnY8ysfu2jc2sBN-fgoWCHXMmL_TClPdm5fOnRYVjezdRCn0xvRBvOWwBjWTPG-DZ61sIaK9UOjLhXPApqg1D-kGGdyd0w0RkACPTao_stvoie2kHQV2R9zmcmHZ9vqY5dz5Inn5WzdtMmZr_zVh_R9Mb0xTV93m00]--></g></svg>

<svg xmlns="http://www.w3.org/2000/svg" width="250" height="374" viewBox="0 0 250 374"><rect width="236" height="39.789" x="7" y="328.58" fill="#3D176E" rx="2.5" ry="2.5" style="stroke:#000d19;stroke-width:.5"/><circle cx="22" cy="348.474" r="11" fill="#ADD1B2" style="stroke:#181818;stroke-width:1"/><path d="M24.969 354.115q-.578.297-1.219.438-.64.156-1.344.156-2.5 0-3.828-1.64-1.312-1.657-1.312-4.782t1.312-4.781q1.328-1.656 3.828-1.656.703 0 1.344.156.656.156 1.219.453v2.719q-.625-.579-1.219-.844-.594-.281-1.219-.281-1.343 0-2.031 1.078-.687 1.062-.687 3.156t.687 3.172q.688 1.062 2.031 1.062.625 0 1.219-.265.594-.281 1.219-.86z"/><text x="41" y="354.36" fill="#D9B8FF" font-family="Helvetica" font-size="17" textLength="194">azure_compute_gallery</text><rect width="200" height="39.789" x="25" y="167.79" fill="#3D176E" rx="2.5" ry="2.5" style="stroke:#000d19;stroke-width:.5"/><circle cx="40" cy="187.685" r="11" fill="#ADD1B2" style="stroke:#181818;stroke-width:1"/><path d="M42.969 193.325q-.578.297-1.219.438-.64.156-1.344.156-2.5 0-3.828-1.64-1.312-1.657-1.312-4.782t1.312-4.781q1.328-1.656 3.828-1.656.703 0 1.344.156.656.156 1.219.453v2.719q-.625-.578-1.219-.844-.594-.281-1.219-.281-1.343 0-2.031 1.078-.687 1.062-.687 3.156t.687 3.172q.688 1.062 2.031 1.062.625 0 1.219-.265.594-.281 1.219-.86z"/><text x="59" y="193.57" fill="#D9B8FF" font-family="Helvetica" font-size="17" textLength="158">microsoft_resource</text><rect width="113" height="39.789" x="68.5" y="7" fill="#3D176E" rx="2.5" ry="2.5" style="stroke:#000d19;stroke-width:.5"/><circle cx="83.5" cy="26.895" r="11" fill="#ADD1B2" style="stroke:#181818;stroke-width:1"/><path d="M86.469 32.535q-.578.297-1.219.438-.64.156-1.344.156-2.5 0-3.828-1.64-1.312-1.657-1.312-4.782t1.312-4.781q1.328-1.656 3.828-1.656.703 0 1.344.156.656.156 1.219.453v2.719q-.625-.578-1.219-.844-.594-.281-1.219-.281-1.344 0-2.031 1.078-.687 1.062-.687 3.156T82 29.879q.688 1.062 2.031 1.062.625 0 1.219-.265.594-.281 1.219-.86z"/><text x="102.5" y="32.78" fill="#D9B8FF" font-family="Helvetica" font-size="17" textLength="71">resource</text><path fill="none" d="M125 225.84v102.41m0-120.41-6 18h12zm0-142.79v102.41m0-120.41-6 18h12z" style="stroke:#ffaf37;stroke-width:2"/></svg>
